!!!OTL: Surrexit Christus hodie
**kern
*staff1
=--
*clefC1
*k[b-]
*M3/1
1r
1r
1f
=-
0f
1f
=-
0g
1g
=-
0a
1b-
=-
0cc
1cc
=-
0b-
1a
=-
1g
1cc
1b-
=-
0a
1g
!!linebreak:original
=-
0a
1a
=-
0f
1f
=-
0a
1g
=-
0f
1e
=-
0f
1d
=-
0f
1e
=-
1f
1e
1f
=-=
*-
!!title: @{OTL}, @{GTL}, ed. @{ENC}
!!!pag:
!!!GTL: Hymnbook C
!!!EFL: 
!!!YEM: Creative Commons CC/BY/NC/SA 4.0
!!!ENC: Marcin Konik
!!!END: 2015-0m-dd
!!!EED: Marcin Konik
!!!EEV: 
!!!ONB: Encoded in vim by Marcin Konik
!!!CharacterEncoding: utf-8
!!!RDF**kern: l=long note in original notation
!!!RDF**kern: i=editorial accidental
!!muse2ps: z14jc180F
!!!COM: Anonim
!!!CDT: [?]
!!!TXO: Polish
!!!ODT: 
!!!GTL: Hymnbook C
!!!ARL: Opactwo św. Wojciecha, Staniątki 
!!!voices:	1
